src/lib/packages/icons/src/assets/filled/candy-cane.svg

<svg width="24" height="24" viewBox="0 0 24 24" fill="none" xmlns="http://www.w3.org/2000/svg">
<path d="M6.14011 17.0802L7.91012 15.3102C7.91012 15.3102 8.00012 15.2502 8.05012 15.2502H13.0401C13.2201 15.2502 13.3101 15.4702 13.1801 15.5902L11.5801 17.1902C11.5801 17.1902 11.4901 17.2502 11.4401 17.2502H6.21011C6.12011 17.2502 6.08011 17.1402 6.14011 17.0802ZM18.7101 7.15022L14.5701 8.34022C14.5101 8.36022 14.4601 8.41023 14.4401 8.47023C14.3601 8.76023 14.2001 9.04022 13.9801 9.25022L13.3601 9.87022C13.3601 9.87022 12.9501 10.2502 13.2401 10.2502H18.1301C18.2101 10.2502 18.2801 10.2102 18.3101 10.1402C18.7901 9.27024 19.0101 8.30021 18.9801 7.33021C18.9801 7.20021 18.8401 7.11024 18.7201 7.14024L18.7101 7.15022ZM9.72011 13.7502H14.9501C15.0001 13.7502 15.0501 13.7302 15.0901 13.6902L16.6901 12.0902C16.8201 11.9602 16.7301 11.7502 16.5501 11.7502H11.5601C11.5101 11.7502 11.4601 11.7702 11.4201 11.8102L9.65011 13.5802C9.59011 13.6402 9.63011 13.7502 9.72011 13.7502ZM11.8201 6.80021C12.0301 6.60021 12.2801 6.48024 12.5501 6.42024C12.6301 6.40024 12.7001 6.34022 12.7101 6.25022C12.7701 5.62022 13.0401 3.08021 13.1201 2.27021C13.1301 2.14021 13.0301 2.03021 12.9001 2.05021C11.6801 2.17021 10.5001 2.68021 9.57012 3.61021L9.06011 4.12022C8.23011 4.95022 8.32012 6.35022 9.32012 7.06022C10.0901 7.61022 11.1501 7.45021 11.8301 6.80021H11.8201ZM4.64011 18.7502C4.47011 18.7502 4.41012 18.8502 4.37012 18.9002C3.82012 19.6702 3.88011 20.7402 4.57011 21.4302C5.34011 22.2002 6.58011 22.2002 7.35011 21.4302L9.77012 19.0102C9.77012 19.0102 10.0701 18.7602 9.87011 18.7602H4.64011V18.7502ZM14.1501 6.89024L18.4301 5.67024C18.5501 5.64024 18.6101 5.51022 18.5701 5.40022C18.3001 4.75022 17.9101 4.14022 17.3801 3.62022C16.6601 2.90022 15.7901 2.43024 14.8701 2.20024C14.7501 2.17024 14.6301 2.26023 14.6201 2.38023L14.1501 6.91023V6.89024Z" fill="currentColor"/>
</svg>

<svg xmlns="http://www.w3.org/2000/svg" width="24" height="24" fill="none"><path fill="currentColor" d="m6.14 17.08 1.77-1.77s.09-.06.14-.06h4.99c.18 0 .27.22.14.34l-1.6 1.6s-.09.06-.14.06H6.21c-.09 0-.13-.11-.07-.17Zm12.57-9.93-4.14 1.19a.21.21 0 0 0-.13.13c-.08.29-.24.57-.46.78l-.62.62s-.41.38-.12.38h4.89c.08 0 .15-.04.18-.11.48-.87.7-1.84.67-2.81 0-.13-.14-.22-.26-.19l-.01.01Zm-8.99 6.6h5.23c.05 0 .1-.02.14-.06l1.6-1.6c.13-.13.04-.34-.14-.34h-4.99c-.05 0-.1.02-.14.06l-1.77 1.77c-.06.06-.02.17.07.17Zm2.1-6.95c.21-.2.46-.32.73-.38.08-.02.15-.08.16-.17.06-.63.33-3.17.41-3.98.01-.13-.09-.24-.22-.22-1.22.12-2.4.63-3.33 1.56l-.51.51c-.83.83-.74 2.23.26 2.94.77.55 1.83.39 2.51-.26h-.01ZM4.64 18.75c-.17 0-.23.1-.27.15a1.96 1.96 0 0 0 2.98 2.53l2.42-2.42s.3-.25.1-.25H4.64v-.01Zm9.51-11.86 4.28-1.22c.12-.03.18-.16.14-.27-.27-.65-.66-1.26-1.19-1.78a5.378 5.378 0 0 0-2.51-1.42.205.205 0 0 0-.25.18l-.47 4.53v-.02Z"/></svg>
